neru-dark-classic/22x22/actions/call-stop-symbolic.svg

<svg xmlns="http://www.w3.org/2000/svg" width="16" height="16" version="1.1">
 <path style="fill:#5c616c" d="M 4.5,11 7.5,14 C 7.5,14 8,14.5 8.5,14 L 11.5,11 Z"/>
 <path style="fill:#3fb7ff" class="warning" d="M 8.14,2.0141 C 5.47,1.9741 2.89,3.0211 0.99,4.9141 L 0.29,5.6151 C -0.1,6.0031 -0.1,6.6291 0.29,7.0181 L 2.39,9.1191 C 2.78,9.5071 3.41,9.5071 3.8,9.1191 L 5,7.9161 V 5.6581 5.6581 L 5.2,5.5761 C 6.98,4.7911 9.02,4.7941 10.801,5.5861 L 11.001,5.6591 V 5.6591 7.9161 L 12.211,9.1191 C 12.59,9.5081 13.221,9.5081 13.61,9.1191 L 15.711,7.0181 C 16.1,6.6301 16.1,6.0041 15.711,5.6161 L 15.01,4.9141 C 13.18,3.0921 10.721,2.0511 8.14,2.0141 Z"/>
</svg>

<svg xmlns="http://www.w3.org/2000/svg" width="16" height="16"><path d="M4.5 11l3 3s.5.5 1 0l3-3z" fill="#5c616c"/><path class="warning" d="M8.14 2.014a9.927 9.927 0 0 0-7.15 2.9l-.7.701a.987.987 0 0 0 0 1.403l2.1 2.101a1 1 0 0 0 1.41 0L5 7.916V5.658l.2-.082a6.927 6.927 0 0 1 5.601.01l.2.073v2.257l1.21 1.203a.984.984 0 0 0 1.399 0l2.101-2.1a.988.988 0 0 0 0-1.403l-.701-.702a9.935 9.935 0 0 0-6.87-2.9z" fill="#3fb7ff"/></svg>
